;FLAVOR:UltiGCode
;TIME:3788
;MATERIAL:6509
;MATERIAL2:0
;NOZZLE_DIAMETER:0.4
;Generated with Cura_SteamEngine 3.1.0
M82 ; absolute extrusion mode

;LAYER_COUNT:200
;LAYER:0
M107
G0 F4500 X96.243 Y85.823 Z0.27
;TYPE:SKIRT
G1 F1800 X97.27 Y84.739 E0.14111
G1 X97.975 Y84.081 E0.23224
G1 X99.124 Y83.133 E0.37301
G1 X99.865 Y82.591 E0.45977
G1 X101.106 Y81.79 E0.59935
G1 X101.943 Y81.319 E0.69011
G1 X103.297 Y80.663 E0.83229
G1 X104.152 Y80.309 E0.91974
G1 X105.566 Y79.819 E1.06116
G1 X106.489 Y79.561 E1.15172
G1 X107.981 Y79.24 E1.29594
G1 X108.928 Y79.096 E1.38646
G1 X110.421 Y78.961 E1.52813
G1 X111.606 Y78.943 E1.64012
G1 X113.835 Y79.078 E1.85115
G1 X114.989 Y79.235 E1.96121
G1 X116.44 Y79.542 E2.10136
G1 X117.352 Y79.793 E2.19075
G1 X118.765 Y80.275 E2.33183
G1 X119.635 Y80.63 E2.42063
G1 X120.981 Y81.277 E2.56176
G1 X121.807 Y81.738 E2.65115
G1 X123.074 Y82.547 E2.79321
G1 X123.842 Y83.105 E2.88292
G1 X124.992 Y84.052 E3.0237
G1 X125.677 Y84.688 E3.11203
G1 X126.708 Y85.766 E3.25299
G1 X127.316 Y86.483 E3.34183
G1 X128.211 Y87.676 E3.48277
G1 X128.733 Y88.466 E3.57225
G1 X129.474 Y89.75 E3.71234
G1 X129.89 Y90.582 E3.80025
G1 X130.478 Y91.953 E3.94122
G1 X130.799 Y92.847 E4.03098
G1 X131.221 Y94.29 E4.17306
G1 X131.431 Y95.206 E4.26186
G1 X131.676 Y96.677 E4.40279
G1 X131.775 Y97.62 E4.49239
G1 X131.841 Y99.101 E4.63249
G1 X131.827 Y100.038 E4.72104
G1 X131.715 Y101.538 E4.86319
G1 X131.59 Y102.469 E4.95196
G1 X131.305 Y103.921 E5.09179
G1 X131.067 Y104.837 E5.18122
G1 X130.606 Y106.256 E5.32222
G1 X130.26 Y107.136 E5.41158
G1 X129.627 Y108.501 E5.55376
G1 X129.186 Y109.321 E5.64175
G1 X128.409 Y110.581 E5.78164
G1 X127.714 Y111.539 E5.89348
G1 X126.265 Y113.249 E6.10529
G1 X125.441 Y114.086 E6.21629
G1 X124.318 Y115.068 E6.35726
G1 X123.573 Y115.645 E6.44631
G1 X122.339 Y116.487 E6.58748
G1 X121.527 Y116.972 E6.67686
G1 X120.199 Y117.661 E6.81824
G1 X119.343 Y118.042 E6.90679
G1 X118.328 Y118.423 E7.00924
G1 X118.679 Y118.576 E7.04542
G1 X119.629 Y119.069 E7.14657
G1 X120.894 Y119.838 E7.28646
G1 X121.771 Y120.457 E7.3879
G1 X122.938 Y121.406 E7.53005
G1 X123.735 Y122.152 E7.63321
G1 X124.752 Y123.245 E7.77429
G1 X125.423 Y124.071 E7.87486
G1 X126.274 Y125.278 E8.01442
G1 X126.83 Y126.192 E8.11552
G1 X127.522 Y127.527 E8.25762
G1 X127.953 Y128.521 E8.36
G1 X128.453 Y129.932 E8.50147
G1 X128.741 Y130.961 E8.60244
G1 X129.041 Y132.406 E8.74191
G1 X129.187 Y133.468 E8.84321
G1 X129.289 Y134.956 E8.98416
G1 X129.289 Y136.034 E9.08603
G1 X129.186 Y137.535 E9.22821
G1 X129.039 Y138.598 E9.32962
G1 X128.738 Y140.047 E9.46947
G1 X128.448 Y141.082 E9.57104
G1 X127.948 Y142.489 E9.71215
G1 X127.519 Y143.476 E9.81385
G1 X126.828 Y144.809 E9.95574
G1 X126.273 Y145.723 E10.05679
G1 X125.419 Y146.934 E10.19682
G1 X124.743 Y147.766 E10.29813
G1 X123.725 Y148.858 E10.43921
G1 X122.933 Y149.598 E10.54164
G1 X121.767 Y150.546 E10.68365
G1 X120.887 Y151.167 E10.78543
G1 X119.621 Y151.936 E10.92541
G1 X118.669 Y152.428 E11.02668
G1 X117.301 Y153.022 E11.16761
G1 X116.295 Y153.38 E11.26852
G1 X114.857 Y153.784 E11.40967
G1 X113.8 Y154.005 E11.51172
G1 X112.317 Y154.209 E11.65318
G1 X111.239 Y154.282 E11.75529
G1 X109.744 Y154.281 E11.89656
G1 X108.676 Y154.208 E11.99772
G1 X107.193 Y154.004 E12.13919
G1 X106.128 Y153.781 E12.24201
G1 X104.692 Y153.376 E12.38301
G1 X103.689 Y153.019 E12.48362
G1 X102.321 Y152.424 E12.62459
G1 X101.37 Y151.93 E12.72586
G1 X100.104 Y151.16 E12.86589
G1 X99.228 Y150.542 E12.9672
G1 X98.061 Y149.593 E13.10934
G1 X97.264 Y148.847 E13.2125
G1 X96.248 Y147.755 E13.35346
G1 X95.576 Y146.927 E13.45423
G1 X94.724 Y145.718 E13.594
G1 X94.17 Y144.806 E13.69484
G1 X93.479 Y143.473 E13.83673
G1 X93.047 Y142.479 E13.93915
G1 X92.547 Y141.068 E14.08061
G1 X92.259 Y140.036 E14.18186
G1 X91.959 Y138.588 E14.3216
G1 X91.814 Y137.53 E14.42252
G1 X91.712 Y136.045 E14.56318
G1 X91.711 Y134.967 E14.66505
G1 X91.814 Y133.463 E14.80751
G1 X91.961 Y132.396 E14.9093
G1 X92.262 Y130.95 E15.04887
G1 X92.552 Y129.918 E15.15017
G1 X93.052 Y128.511 E15.29128
G1 X93.48 Y127.524 E15.39295
G1 X94.172 Y126.189 E15.53504
G1 X94.729 Y125.273 E15.63635
G1 X95.582 Y124.064 E15.77618
G1 X96.257 Y123.234 E15.87728
G1 X97.275 Y122.142 E16.01836
G1 X98.067 Y121.402 E16.12079
G1 X99.234 Y120.453 E16.26293
G1 X100.115 Y119.831 E16.36484
G1 X101.38 Y119.063 E16.50469
G1 X102.331 Y118.572 E16.60583
G1 X103.608 Y118.017 E16.73741
G1 X102.883 Y117.698 E16.81226
G1 X101.549 Y117.014 E16.95393
G1 X100.735 Y116.532 E17.04333
G1 X99.503 Y115.7 E17.18382
G1 X98.747 Y115.12 E17.27386
G1 X97.623 Y114.144 E17.41453
G1 X96.958 Y113.494 E17.50241
G1 X95.954 Y112.389 E17.6435
G1 X95.363 Y111.655 E17.73255
G1 X94.496 Y110.435 E17.87399
G1 X93.993 Y109.628 E17.96385
G1 X93.277 Y108.308 E18.10576
G1 X92.878 Y107.455 E18.19475
G1 X92.333 Y106.08 E18.33452
G1 X92.041 Y105.191 E18.42295
G1 X91.657 Y103.739 E18.56488
G1 X91.469 Y102.804 E18.65501
G1 X91.265 Y101.328 E18.79582
G1 X91.193 Y100.41 E18.88283
G1 X91.163 Y98.933 E19.02244
G1 X91.227 Y97.754 E19.13402
G1 X91.517 Y95.531 E19.34587
G1 X91.758 Y94.372 E19.45774
G1 X92.171 Y92.937 E19.59885
G1 X92.487 Y92.045 E19.68828
G1 X93.073 Y90.661 E19.83031
G1 X93.492 Y89.816 E19.91944
G1 X94.234 Y88.521 E20.06048
G1 X94.755 Y87.727 E20.15022
G1 X95.648 Y86.53 E20.29135
G1 X96.243 Y85.823 E20.37867
G0 F4500 X96.497 Y86.064
G1 F1800 X97.524 Y84.98 E20.51979
G1 X98.198 Y84.351 E20.60691
G1 X99.347 Y83.403 E20.74767
G1 X100.055 Y82.885 E20.83057
G1 X101.296 Y82.084 E20.97016
G1 X102.096 Y81.634 E21.0569
G1 X103.45 Y80.978 E21.19907
G1 X104.267 Y80.64 E21.28263
G1 X105.681 Y80.15 E21.42405
G1 X106.562 Y79.903 E21.51051
G1 X108.054 Y79.582 E21.65473
G1 X108.959 Y79.445 E21.74123
G1 X110.452 Y79.31 E21.88289
G1 X111.585 Y79.293 E21.98997
G1 X113.814 Y79.428 E22.201
G1 X114.917 Y79.577 E22.30618
G1 X116.368 Y79.884 E22.44633
G1 X117.239 Y80.124 E22.53171
G1 X118.652 Y80.606 E22.67279
G1 X119.483 Y80.946 E22.75764
G1 X120.829 Y81.593 E22.89877
G1 X121.619 Y82.033 E22.98423
G1 X122.886 Y82.842 E23.12628
G1 X123.62 Y83.375 E23.212
G1 X124.77 Y84.322 E23.35278
G1 X125.424 Y84.93 E23.43717
G1 X126.455 Y86.008 E23.57813
G1 X127.036 Y86.693 E23.66301
G1 X127.931 Y87.886 E23.80395
G1 X128.43 Y88.641 E23.88947
G1 X129.171 Y89.925 E24.02957
G1 X129.569 Y90.72 E24.11358
G1 X130.157 Y92.091 E24.25455
G1 X130.463 Y92.945 E24.34028
G1 X130.885 Y94.388 E24.48236
G1 X131.086 Y95.264 E24.56729
G1 X131.331 Y96.735 E24.70821
G1 X131.426 Y97.636 E24.79383
G1 X131.492 Y99.117 E24.93392
G1 X131.478 Y100.012 E25.01851
G1 X131.366 Y101.512 E25.16066
G1 X131.246 Y102.401 E25.24543
G1 X130.961 Y103.853 E25.38526
G1 X130.734 Y104.729 E25.47078
G1 X130.273 Y106.148 E25.61177
G1 X129.943 Y106.989 E25.69715
G1 X129.31 Y108.354 E25.83933
G1 X128.888 Y109.138 E25.92347
G1 X128.111 Y110.398 E26.06336
G1 X127.447 Y111.313 E26.1702
G1 X125.998 Y113.023 E26.38201
G1 X125.21 Y113.823 E26.48812
G1 X124.087 Y114.805 E26.6291
G1 X123.375 Y115.356 E26.71418
G1 X122.141 Y116.198 E26.85535
G1 X121.366 Y116.662 E26.94071
G1 X120.038 Y117.351 E27.08209
G1 X119.22 Y117.715 E27.1667
G1 X117.834 Y118.236 E27.30662
G1 X117.358 Y118.383 E27.3537
G1 X118.539 Y118.897 E27.47542
G1 X119.447 Y119.368 E27.57208
G1 X120.712 Y120.137 E27.71198
G1 X121.551 Y120.729 E27.80902
G1 X122.718 Y121.678 E27.95116
G1 X123.479 Y122.39 E28.04964
G1 X124.496 Y123.483 E28.19073
G1 X125.137 Y124.273 E28.28686
G1 X125.988 Y125.48 E28.42643
G1 X126.519 Y126.353 E28.52299
G1 X127.211 Y127.688 E28.66509
G1 X127.623 Y128.638 E28.76294
G1 X128.123 Y130.049 E28.9044
G1 X128.398 Y131.032 E29.00086
G1 X128.698 Y132.477 E29.14033
G1 X128.837 Y133.492 E29.23714
G1 X128.939 Y134.98 E29.37809
G1 X128.939 Y136.01 E29.47542
G1 X128.836 Y137.511 E29.6176
G1 X128.697 Y138.526 E29.71441
G1 X128.396 Y139.975 E29.85427
G1 X128.119 Y140.965 E29.95141
G1 X127.619 Y142.372 E30.09252
G1 X127.209 Y143.315 E30.18969
G1 X126.518 Y144.648 E30.33158
G1 X125.987 Y145.522 E30.42822
G1 X125.133 Y146.733 E30.56826
G1 X124.487 Y147.527 E30.66499
G1 X123.469 Y148.619 E30.80607
G1 X122.712 Y149.327 E30.90401
G1 X121.546 Y150.275 E31.04602
G1 X120.706 Y150.867 E31.14314
G1 X119.44 Y151.636 E31.28312
G1 X118.53 Y152.107 E31.37995
G1 X117.162 Y152.701 E31.52088
G1 X116.2 Y153.044 E31.6174
G1 X114.762 Y153.448 E31.75855
G1 X113.752 Y153.658 E31.85604
G1 X112.269 Y153.862 E31.9975
G1 X111.239 Y153.932 E32.09506
G1 X109.744 Y153.931 E32.23634
G1 X108.724 Y153.861 E32.33295
G1 X107.241 Y153.657 E32.47442
G1 X106.223 Y153.444 E32.5727
G1 X104.787 Y153.039 E32.7137
G1 X103.829 Y152.698 E32.80979
G1 X102.461 Y152.103 E32.95077
G1 X101.552 Y151.631 E33.04756
G1 X100.286 Y150.861 E33.18759
G1 X99.448 Y150.27 E33.28449
G1 X98.281 Y149.321 E33.42663
G1 X97.52 Y148.609 E33.52511
G1 X96.504 Y147.517 E33.66607
G1 X95.862 Y146.726 E33.76234
G1 X95.01 Y145.517 E33.90211
G1 X94.48 Y144.645 E33.99854
G1 X93.789 Y143.312 E34.14043
G1 X93.377 Y142.362 E34.23828
G1 X92.877 Y140.951 E34.37974
G1 X92.601 Y139.965 E34.4765
G1 X92.301 Y138.517 E34.61624
G1 X92.163 Y137.506 E34.71267
G1 X92.061 Y136.021 E34.85333
G1 X92.061 Y134.991 E34.95067
G1 X92.164 Y133.487 E35.09313
G1 X92.304 Y132.467 E35.19042
G1 X92.605 Y131.021 E35.33
G1 X92.881 Y130.035 E35.42676
G1 X93.381 Y128.628 E35.56787
G1 X93.791 Y127.685 E35.66504
G1 X94.483 Y126.35 E35.80714
G1 X95.015 Y125.475 E35.90391
G1 X95.868 Y124.266 E36.04373
G1 X96.513 Y123.473 E36.14033
G1 X97.531 Y122.381 E36.28141
G1 X98.287 Y121.674 E36.37922
G1 X99.454 Y120.725 E36.52137
G1 X100.297 Y120.131 E36.61882
G1 X101.562 Y119.363 E36.75867
G1 X102.47 Y118.893 E36.85529
G1 X103.838 Y118.299 E36.99623
G1 X104.608 Y118.024 E37.07349
G1 X103.854 Y117.744 E37.1495
G1 X103.043 Y117.386 E37.23327
G1 X101.709 Y116.702 E37.37494
G1 X100.931 Y116.242 E37.46035
G1 X99.699 Y115.41 E37.60084
G1 X98.976 Y114.856 E37.68691
G1 X97.852 Y113.88 E37.82759
G1 X97.217 Y113.258 E37.91159
G1 X96.213 Y112.153 E38.05267
G1 X95.648 Y111.452 E38.13776
G1 X94.781 Y110.232 E38.2792
G1 X94.3 Y109.461 E38.36507
G1 X93.584 Y108.141 E38.50698
G1 X93.203 Y107.326 E38.592
G1 X92.658 Y105.951 E38.73177
G1 X92.379 Y105.102 E38.81622
G1 X91.995 Y103.65 E38.95815
G1 X91.816 Y102.756 E39.04431
G1 X91.612 Y101.28 E39.18512
G1 X91.543 Y100.403 E39.26825
G1 X91.513 Y98.926 E39.40786
G1 X91.574 Y97.8 E39.51442
G1 X91.864 Y95.577 E39.72628
G1 X92.095 Y94.469 E39.83323
G1 X92.508 Y93.034 E39.97434
G1 X92.81 Y92.181 E40.05986
G1 X93.396 Y90.797 E40.20188
G1 X93.796 Y89.99 E40.287
G1 X94.538 Y88.695 E40.42804
G1 X95.036 Y87.936 E40.51383
G1 X95.929 Y86.739 E40.65496
G1 X96.497 Y86.064 E40.73832
G0 F4500 X96.751 Y86.304
G1 F1800 X97.778 Y85.22 E40.87943
G1 X98.421 Y84.621 E40.96248
G1 X99.57 Y83.673 E41.10325
G1 X100.245 Y83.179 E41.18229
G1 X101.486 Y82.378 E41.32187
G1 X102.249 Y81.949 E41.40459
G1 X103.603 Y81.293 E41.54677
G1 X104.382 Y80.971 E41.62643
G1 X105.796 Y80.481 E41.76785
G1 X106.636 Y80.246 E41.85027
G1 X108.128 Y79.925 E41.99449
G1 X108.991 Y79.793 E42.077
G1 X110.484 Y79.658 E42.21866
G1 X111.564 Y79.642 E42.32073
G1 X113.793 Y79.777 E42.53176
G1 X114.844 Y79.919 E42.63198
G1 X116.295 Y80.226 E42.77213
G1 X117.126 Y80.455 E42.85359
G1 X118.539 Y80.937 E42.99467
G1 X119.331 Y81.261 E43.07554
G1 X120.677 Y81.908 E43.21667
G1 X121.43 Y82.328 E43.29815
G1 X122.697 Y83.137 E43.4402
G1 X123.397 Y83.645 E43.52194
G1 X124.547 Y84.592 E43.66272
G1 X125.171 Y85.172 E43.74323
G1 X126.202 Y86.25 E43.88419
G1 X126.756 Y86.903 E43.96511
G1 X127.651 Y88.096 E44.10605
G1 X128.126 Y88.816 E44.18756
G1 X128.867 Y90.1 E44.32766
G1 X129.247 Y90.858 E44.40778
G1 X129.835 Y92.229 E44.54876
G1 X130.128 Y93.043 E44.63051
G1 X130.55 Y94.486 E44.77259
G1 X130.741 Y95.321 E44.85353
G1 X130.986 Y96.792 E44.99446
G1 X131.076 Y97.652 E45.07617
G1 X131.142 Y99.133 E45.21626
G1 X131.129 Y99.986 E45.29688
G1 X131.017 Y101.486 E45.43903
G1 X130.903 Y102.334 E45.51988
G1 X130.618 Y103.786 E45.65971
G1 X130.401 Y104.621 E45.74124
G1 X129.94 Y106.04 E45.88224
G1 X129.625 Y106.842 E45.96366
G1 X128.992 Y108.207 E46.10585
G1 X128.59 Y108.954 E46.18601
G1 X127.813 Y110.214 E46.3259
G1 X127.18 Y111.087 E46.42781
G1 X125.731 Y112.797 E46.63962
G1 X124.98 Y113.559 E46.74072
G1 X123.857 Y114.541 E46.88169
G1 X123.178 Y115.067 E46.96286
G1 X121.944 Y115.909 E47.10403
G1 X121.204 Y116.351 E47.18549
G1 X119.876 Y117.04 E47.32687
G1 X119.097 Y117.387 E47.40746
G1 X117.711 Y117.908 E47.54738
G1 X116.887 Y118.162 E47.62887
G1 X116.206 Y118.328 E47.69511
G1 X117.032 Y118.623 E47.77799
G1 X118.4 Y119.218 E47.91897
G1 X119.265 Y119.667 E48.01106
G1 X120.53 Y120.436 E48.15096
G1 X121.33 Y121 E48.24346
G1 X122.497 Y121.949 E48.3856
G1 X123.223 Y122.628 E48.47954
G1 X124.24 Y123.721 E48.62063
G1 X124.851 Y124.475 E48.71234
G1 X125.702 Y125.682 E48.8519
G1 X126.208 Y126.514 E48.94392
G1 X126.9 Y127.849 E49.08602
G1 X127.293 Y128.754 E49.17926
G1 X127.793 Y130.165 E49.32072
G1 X128.055 Y131.103 E49.41276
G1 X128.355 Y132.548 E49.55222
G1 X128.488 Y133.516 E49.64456
G1 X128.59 Y135.004 E49.7855
G1 X128.59 Y135.986 E49.8783
G1 X128.487 Y137.487 E50.02048
G1 X128.354 Y138.455 E50.11281
G1 X128.053 Y139.904 E50.25267
G1 X127.789 Y140.848 E50.3453
G1 X127.289 Y142.255 E50.48641
G1 X126.898 Y143.154 E50.57905
G1 X126.207 Y144.487 E50.72094
G1 X125.701 Y145.32 E50.81304
G1 X124.847 Y146.531 E50.95307
G1 X124.231 Y147.289 E51.04538
G1 X123.213 Y148.381 E51.18646
G1 X122.491 Y149.055 E51.27979
G1 X121.325 Y150.003 E51.4218
G1 X120.524 Y150.568 E51.51443
G1 X119.258 Y151.337 E51.65441
G1 X118.391 Y151.786 E51.74668
G1 X117.023 Y152.38 E51.88762
G1 X116.106 Y152.707 E51.97962
G1 X114.668 Y153.111 E52.12077
G1 X113.705 Y153.311 E52.21371
G1 X112.222 Y153.515 E52.35518
G1 X111.239 Y153.582 E52.44829
G1 X109.744 Y153.581 E52.58956
G1 X108.771 Y153.514 E52.68173
G1 X107.288 Y153.31 E52.82319
G1 X106.318 Y153.108 E52.91683
G1 X104.882 Y152.703 E53.05782
G1 X103.968 Y152.377 E53.14952
G1 X102.6 Y151.782 E53.2905
G1 X101.734 Y151.332 E53.38272
G1 X100.468 Y150.562 E53.52275
G1 X99.669 Y149.999 E53.61512
G1 X98.502 Y149.05 E53.75726
G1 X97.776 Y148.37 E53.85126
G1 X96.76 Y147.278 E53.99222
G1 X96.148 Y146.524 E54.08399
G1 X95.296 Y145.315 E54.22376
G1 X94.791 Y144.484 E54.31565
G1 X94.1 Y143.151 E54.45754
G1 X93.707 Y142.246 E54.55077
G1 X93.207 Y140.835 E54.69224
G1 X92.944 Y139.894 E54.78457
G1 X92.644 Y138.446 E54.92431
G1 X92.512 Y137.482 E55.01626
G1 X92.41 Y135.997 E55.15692
G1 X92.41 Y135.015 E55.24972
G1 X92.513 Y133.511 E55.39218
G1 X92.647 Y132.539 E55.48491
G1 X92.948 Y131.093 E55.62448
G1 X93.211 Y130.152 E55.71681
G1 X93.711 Y128.745 E55.85792
G1 X94.102 Y127.846 E55.95057
G1 X94.794 Y126.511 E56.09266
G1 X95.301 Y125.677 E56.1849
G1 X96.154 Y124.468 E56.32472
G1 X96.769 Y123.711 E56.41689
G1 X97.787 Y122.619 E56.55797
G1 X98.508 Y121.945 E56.65124
G1 X99.675 Y120.996 E56.79338
G1 X100.478 Y120.43 E56.88622
G1 X101.743 Y119.662 E57.02607
G1 X102.609 Y119.214 E57.11821
G1 X103.977 Y118.62 E57.25915
G1 X104.894 Y118.293 E57.35115
G1 X105.756 Y118.051 E57.43576
G1 X105.367 Y117.932 E57.4742
G1 X103.976 Y117.415 E57.61443
G1 X103.202 Y117.075 E57.69432
G1 X101.868 Y116.391 E57.83599
G1 X101.126 Y115.952 E57.91746
G1 X99.894 Y115.12 E58.05795
G1 X99.206 Y114.592 E58.13991
G1 X98.082 Y113.616 E58.28058
G1 X97.476 Y113.023 E58.3607
G1 X96.472 Y111.918 E58.50179
G1 X95.933 Y111.249 E58.58298
G1 X95.066 Y110.029 E58.72441
G1 X94.608 Y109.294 E58.80625
G1 X93.892 Y107.974 E58.94816
G1 X93.529 Y107.197 E59.02921
G1 X92.984 Y105.822 E59.16898
G1 X92.717 Y105.012 E59.24958
G1 X92.333 Y103.56 E59.39151
G1 X92.163 Y102.708 E59.47361
G1 X91.959 Y101.232 E59.61442
G1 X91.892 Y100.396 E59.69367
G1 X91.862 Y98.919 E59.83328
G1 X91.921 Y97.845 E59.93492
G1 X92.211 Y95.622 E60.14678
G1 X92.431 Y94.566 E60.24871
G1 X92.844 Y93.131 E60.38982
G1 X93.132 Y92.317 E60.47142
G1 X93.718 Y90.933 E60.61345
G1 X94.1 Y90.164 E60.69459
G1 X94.842 Y88.869 E60.83563
G1 X95.316 Y88.146 E60.91733
G1 X96.209 Y86.949 E61.05846
G1 X96.751 Y86.304 E61.13807
G0 F4500 X97.005 Y86.545
G1 F1800 X98.032 Y85.461 E61.27918
