;FLAVOR:UltiGCode
;TIME:17372
;MATERIAL:32629
;MATERIAL2:0
;NOZZLE_DIAMETER:0.4
;Generated with Cura_SteamEngine 3.1.0
M82 ; absolute extrusion mode

;LAYER_COUNT:26
;LAYER:0
M107
G0 F4500 X54.604 Y32.697 Z0.27
;TYPE:SKIRT
G1 F1800 X55.022 Y32.022 E0.07503
G1 X55.505 Y31.393 E0.14997
G1 X56.05 Y30.816 E0.22498
G1 X56.649 Y30.296 E0.29993
G1 X57.298 Y29.84 E0.37489
G1 X57.99 Y29.451 E0.44991
G1 X58.717 Y29.133 E0.5249
G1 X59.473 Y28.89 E0.59994
G1 X60.249 Y28.725 E0.67491
G1 X61.037 Y28.639 E0.74982
G1 X61.5 Y28.625 E0.79359
G1 X161.5 Y28.625 E10.24359
G1 X162.292 Y28.665 E10.31853
G1 X163.077 Y28.784 E10.39356
G1 X163.845 Y28.982 E10.46851
G1 X164.59 Y29.257 E10.54355
G1 X165.303 Y29.604 E10.61849
G1 X165.978 Y30.022 E10.69352
G1 X166.607 Y30.505 E10.76846
G1 X167.184 Y31.05 E10.84346
G1 X167.704 Y31.649 E10.91842
G1 X168.16 Y32.298 E10.99338
G1 X168.549 Y32.99 E11.0684
G1 X168.867 Y33.717 E11.14338
G1 X169.11 Y34.473 E11.21843
G1 X169.275 Y35.249 E11.2934
G1 X169.361 Y36.037 E11.3683
G1 X169.375 Y36.5 E11.41208
G1 X169.375 Y186.5 E25.58708
G1 X169.335 Y187.292 E25.66202
G1 X169.216 Y188.077 E25.73705
G1 X169.018 Y188.845 E25.812
G1 X168.743 Y189.59 E25.88704
G1 X168.396 Y190.303 E25.96198
G1 X167.978 Y190.978 E26.037
G1 X167.495 Y191.607 E26.11195
G1 X166.95 Y192.184 E26.18695
G1 X166.351 Y192.704 E26.26191
G1 X165.702 Y193.16 E26.33687
G1 X165.01 Y193.549 E26.41189
G1 X164.283 Y193.867 E26.48687
G1 X163.527 Y194.11 E26.56191
G1 X162.751 Y194.275 E26.63689
G1 X161.963 Y194.361 E26.71179
G1 X161.5 Y194.375 E26.75557
G1 X61.5 Y194.375 E36.20557
G1 X60.708 Y194.335 E36.28051
G1 X59.923 Y194.216 E36.35554
G1 X59.155 Y194.018 E36.43049
G1 X58.41 Y193.743 E36.50553
G1 X57.697 Y193.396 E36.58047
G1 X57.022 Y192.978 E36.65549
G1 X56.393 Y192.495 E36.73044
G1 X55.816 Y191.95 E36.80544
G1 X55.296 Y191.351 E36.8804
G1 X54.84 Y190.702 E36.95536
G1 X54.451 Y190.01 E37.03037
G1 X54.133 Y189.283 E37.10536
G1 X53.89 Y188.527 E37.1804
G1 X53.725 Y187.751 E37.25537
G1 X53.639 Y186.963 E37.33028
G1 X53.625 Y186.5 E37.37406
G1 X53.625 Y36.5 E51.54906
G1 X53.665 Y35.708 E51.62399
G1 X53.784 Y34.923 E51.69902
G1 X53.982 Y34.155 E51.77397
G1 X54.257 Y33.41 E51.84902
G1 X54.604 Y32.697 E51.92395
G0 F4500 X54.953 Y32.79
G1 F1800 X55.37 Y32.136 E51.99725
G1 X55.852 Y31.528 E52.07057
G1 X56.394 Y30.973 E52.14388
G1 X56.99 Y30.476 E52.21722
G1 X57.634 Y30.044 E52.2905
G1 X58.319 Y29.681 E52.36376
G1 X59.038 Y29.389 E52.43709
G1 X59.783 Y29.174 E52.51037
G1 X60.546 Y29.036 E52.58364
G1 X61.5 Y28.975 E52.67398
G1 X161.5 Y28.975 E62.12398
G1 X162.275 Y29.015 E62.19731
G1 X163.041 Y29.134 E62.27057
G1 X163.791 Y29.332 E62.34387
G1 X164.517 Y29.606 E62.4172
G1 X165.21 Y29.953 E62.49044
G1 X165.864 Y30.37 E62.56374
G1 X166.472 Y30.852 E62.63706
G1 X167.027 Y31.394 E62.71037
G1 X167.524 Y31.99 E62.7837
G1 X167.956 Y32.634 E62.85699
G1 X168.319 Y33.319 E62.93025
G1 X168.611 Y34.038 E63.00358
G1 X168.826 Y34.783 E63.07686
G1 X168.964 Y35.546 E63.15013
G1 X169.025 Y36.5 E63.24047
G1 X169.025 Y186.5 E77.41547
G1 X168.985 Y187.275 E77.4888
G1 X168.866 Y188.041 E77.56206
G1 X168.668 Y188.791 E77.63536
G1 X168.394 Y189.517 E77.70869
G1 X168.047 Y190.21 E77.78193
G1 X167.63 Y190.864 E77.85523
G1 X167.148 Y191.472 E77.92855
G1 X166.606 Y192.027 E78.00186
G1 X166.01 Y192.524 E78.07519
G1 X165.366 Y192.956 E78.14847
G1 X164.681 Y193.319 E78.22173
G1 X163.962 Y193.611 E78.29507
G1 X163.217 Y193.826 E78.36834
G1 X162.454 Y193.964 E78.44162
G1 X161.5 Y194.025 E78.53195
G1 X61.5 Y194.025 E87.98195
G1 X60.725 Y193.985 E88.05529
G1 X59.959 Y193.866 E88.12855
G1 X59.209 Y193.668 E88.20185
G1 X58.483 Y193.394 E88.27518
G1 X57.79 Y193.047 E88.34842
G1 X57.136 Y192.63 E88.42172
G1 X56.528 Y192.148 E88.49504
G1 X55.973 Y191.606 E88.56834
G1 X55.476 Y191.01 E88.64168
G1 X55.044 Y190.366 E88.71496
G1 X54.681 Y189.681 E88.78822
G1 X54.389 Y188.962 E88.86156
G1 X54.174 Y188.217 E88.93483
G1 X54.036 Y187.454 E89.00811
G1 X53.975 Y186.5 E89.09844
G1 X53.975 Y36.5 E103.27344
G1 X54.015 Y35.725 E103.34678
G1 X54.134 Y34.959 E103.42003
G1 X54.332 Y34.209 E103.49334
G1 X54.606 Y33.483 E103.56667
G1 X54.953 Y32.79 E103.63991
G0 F4500 X55.302 Y32.885
G1 F1800 X55.718 Y32.252 E103.71149
G1 X56.198 Y31.666 E103.78307
G1 X56.737 Y31.134 E103.85464
G1 X57.329 Y30.662 E103.92619
G1 X57.968 Y30.255 E103.99778
G1 X58.646 Y29.917 E104.06937
G1 X59.355 Y29.653 E104.14087
G1 X60.089 Y29.465 E104.21247
G1 X60.838 Y29.356 E104.28399
G1 X61.5 Y29.325 E104.34662
G1 X161.5 Y29.325 E113.79662
G1 X162.256 Y29.365 E113.86816
G1 X163.004 Y29.484 E113.93974
G1 X163.735 Y29.682 E114.01131
G1 X164.442 Y29.956 E114.08296
G1 X165.115 Y30.302 E114.15447
G1 X165.748 Y30.718 E114.22605
G1 X166.334 Y31.198 E114.29763
G1 X166.866 Y31.737 E114.3692
G1 X167.338 Y32.329 E114.44075
G1 X167.745 Y32.968 E114.51235
G1 X168.083 Y33.646 E114.58394
G1 X168.347 Y34.355 E114.65543
G1 X168.535 Y35.089 E114.72703
G1 X168.644 Y35.838 E114.79856
G1 X168.675 Y36.5 E114.86119
G1 X168.675 Y186.5 E129.03619
G1 X168.635 Y187.256 E129.10773
G1 X168.516 Y188.004 E129.1793
G1 X168.318 Y188.735 E129.25087
G1 X168.044 Y189.442 E129.32253
G1 X167.698 Y190.115 E129.39404
G1 X167.282 Y190.748 E129.46562
G1 X166.802 Y191.334 E129.5372
G1 X166.263 Y191.866 E129.60877
G1 X165.671 Y192.338 E129.68032
G1 X165.032 Y192.745 E129.75191
G1 X164.354 Y193.083 E129.8235
G1 X163.645 Y193.347 E129.895
G1 X162.911 Y193.535 E129.9666
G1 X162.162 Y193.644 E130.03812
G1 X161.5 Y193.675 E130.10075
G1 X61.5 Y193.675 E139.55075
G1 X60.744 Y193.635 E139.62229
G1 X59.996 Y193.516 E139.69387
G1 X59.265 Y193.318 E139.76544
G1 X58.558 Y193.044 E139.83709
G1 X57.885 Y192.698 E139.9086
G1 X57.252 Y192.282 E139.98018
G1 X56.666 Y191.802 E140.05177
G1 X56.134 Y191.263 E140.12333
G1 X55.662 Y190.671 E140.19488
G1 X55.255 Y190.032 E140.26648
G1 X54.917 Y189.354 E140.33807
G1 X54.653 Y188.645 E140.40956
G1 X54.465 Y187.911 E140.48116
G1 X54.356 Y187.162 E140.55269
G1 X54.325 Y186.5 E140.61532
G1 X54.325 Y36.5 E154.79032
G1 X54.365 Y35.744 E154.86186
G1 X54.484 Y34.996 E154.93343
G1 X54.682 Y34.265 E155.005
G1 X54.956 Y33.558 E155.07666
G1 X55.302 Y32.885 E155.14817
G0 F4500 X55.651 Y32.983
G1 F1800 X56.065 Y32.371 E155.21799
G1 X56.543 Y31.808 E155.28778
G1 X57.079 Y31.3 E155.35757
G1 X57.667 Y30.853 E155.42737
G1 X58.3 Y30.472 E155.49719
G1 X58.97 Y30.161 E155.56699
G1 X59.67 Y29.925 E155.6368
G1 X60.391 Y29.766 E155.70657
G1 X61.126 Y29.685 E155.77645
G1 X61.5 Y29.675 E155.81181
G1 X161.5 Y29.675 E165.26181
G1 X162.238 Y29.715 E165.33165
G1 X162.966 Y29.834 E165.40136
G1 X163.678 Y30.032 E165.4712
G1 X164.364 Y30.305 E165.54097
G1 X165.017 Y30.651 E165.6108
G1 X165.629 Y31.065 E165.68063
G1 X166.192 Y31.543 E165.75042
G1 X166.7 Y32.079 E165.82021
G1 X167.147 Y32.667 E165.89001
G1 X167.528 Y33.3 E165.95982
G1 X167.839 Y33.97 E166.02963
G1 X168.075 Y34.67 E166.09944
G1 X168.234 Y35.391 E166.16921
G1 X168.315 Y36.126 E166.23909
G1 X168.325 Y36.5 E166.27444
G1 X168.325 Y186.5 E180.44944
G1 X168.285 Y187.238 E180.51928
G1 X168.166 Y187.966 E180.58899
G1 X167.968 Y188.678 E180.65883
G1 X167.695 Y189.364 E180.7286
G1 X167.349 Y190.017 E180.79844
G1 X166.935 Y190.629 E180.86826
G1 X166.457 Y191.192 E180.93805
G1 X165.921 Y191.7 E181.00784
G1 X165.333 Y192.147 E181.07764
G1 X164.7 Y192.528 E181.14746
G1 X164.03 Y192.839 E181.21726
G1 X163.33 Y193.075 E181.28707
G1 X162.609 Y193.234 E181.35684
G1 X161.874 Y193.315 E181.42672
G1 X161.5 Y193.325 E181.46208
G1 X61.5 Y193.325 E190.91208
G1 X60.762 Y193.285 E190.98192
G1 X60.034 Y193.166 E191.05163
G1 X59.322 Y192.968 E191.12147
G1 X58.636 Y192.695 E191.19124
G1 X57.983 Y192.349 E191.26107
G1 X57.371 Y191.935 E191.3309
G1 X56.808 Y191.457 E191.40069
G1 X56.3 Y190.921 E191.47048
G1 X55.853 Y190.333 E191.54028
G1 X55.472 Y189.7 E191.61009
G1 X55.161 Y189.03 E191.6799
G1 X54.925 Y188.33 E191.74971
G1 X54.766 Y187.609 E191.81948
G1 X54.685 Y186.874 E191.88936
G1 X54.675 Y186.5 E191.92471
G1 X54.675 Y36.5 E206.09971
G1 X54.715 Y35.762 E206.16955
G1 X54.834 Y35.034 E206.23926
G1 X55.032 Y34.322 E206.3091
G1 X55.305 Y33.636 E206.37887
G1 X55.651 Y32.983 E206.44871
G0 F4500 X56 Y33.083
G1 F1800 X56.413 Y32.494 E206.51669
G1 X56.889 Y31.955 E206.58464
G1 X57.421 Y31.471 E206.65261
G1 X58.004 Y31.05 E206.72057
G1 X58.631 Y30.696 E206.78861
G1 X59.292 Y30.413 E206.85656
G1 X59.981 Y30.206 E206.92454
G1 X60.689 Y30.076 E206.99257
G1 X61.5 Y30.025 E207.06936
G1 X161.5 Y30.025 E216.51936
G1 X162.218 Y30.065 E216.58731
G1 X162.928 Y30.184 E216.65535
G1 X163.62 Y30.382 E216.72336
G1 X164.285 Y30.655 E216.7913
G1 X164.917 Y31 E216.85934
G1 X165.506 Y31.413 E216.92732
G1 X166.045 Y31.889 E216.99527
G1 X166.529 Y32.421 E217.06324
G1 X166.95 Y33.004 E217.1312
G1 X167.304 Y33.631 E217.19924
G1 X167.587 Y34.292 E217.26719
G1 X167.794 Y34.981 E217.33517
G1 X167.924 Y35.689 E217.4032
G1 X167.975 Y36.5 E217.47999
G1 X167.975 Y186.5 E231.65499
G1 X167.935 Y187.218 E231.72295
G1 X167.816 Y187.928 E231.79098
G1 X167.618 Y188.62 E231.85899
G1 X167.345 Y189.285 E231.92693
G1 X167 Y189.917 E231.99497
G1 X166.587 Y190.506 E232.06295
G1 X166.111 Y191.045 E232.1309
G1 X165.579 Y191.529 E232.19887
G1 X164.996 Y191.95 E232.26683
G1 X164.369 Y192.304 E232.33487
G1 X163.708 Y192.587 E232.40282
G1 X163.019 Y192.794 E232.4708
G1 X162.311 Y192.924 E232.53883
G1 X161.5 Y192.975 E232.61562
G1 X61.5 Y192.975 E242.06562
G1 X60.782 Y192.935 E242.13358
G1 X60.072 Y192.816 E242.20161
G1 X59.38 Y192.618 E242.26963
G1 X58.715 Y192.345 E242.33756
G1 X58.083 Y192 E242.4056
G1 X57.494 Y191.587 E242.47358
G1 X56.955 Y191.111 E242.54154
G1 X56.471 Y190.579 E242.6095
G1 X56.05 Y189.996 E242.67746
G1 X55.696 Y189.369 E242.7455
G1 X55.413 Y188.708 E242.81345
G1 X55.206 Y188.019 E242.88144
G1 X55.076 Y187.311 E242.94946
G1 X55.025 Y186.5 E243.02625
G1 X55.025 Y36.5 E257.20125
G1 X55.065 Y35.782 E257.26921
G1 X55.184 Y35.072 E257.33724
G1 X55.382 Y34.38 E257.40526
G1 X55.655 Y33.715 E257.47319
G1 X56 Y33.083 E257.54123
G0 F4500 X56.004 Y33.796
G1 F1800 X56.348 Y33.187 E257.60733
G1 X56.76 Y32.621 E257.67349
G1 X57.233 Y32.106 E257.73956
G1 X57.762 Y31.648 E257.80569
G1 X58.34 Y31.253 E257.87185
G1 X58.959 Y30.927 E257.93796
G1 X59.611 Y30.673 E258.00408
G1 X60.288 Y30.496 E258.07021
G1 X60.981 Y30.397 E258.13636
G1 X61.5 Y30.375 E258.18545
G1 X161.5 Y30.375 E267.63545
G1 X162.199 Y30.415 E267.70161
G1 X162.888 Y30.534 E267.76769
G1 X163.559 Y30.732 E267.8338
G1 X164.204 Y31.004 E267.89995
G1 X164.813 Y31.348 E267.96605
G1 X165.379 Y31.76 E268.03221
G1 X165.894 Y32.233 E268.09829
G1 X166.352 Y32.762 E268.16441
G1 X166.747 Y33.34 E268.23057
G1 X167.073 Y33.959 E268.29668
G1 X167.327 Y34.611 E268.3628
G1 X167.504 Y35.288 E268.42893
G1 X167.603 Y35.981 E268.49508
G1 X167.625 Y36.5 E268.54417
G1 X167.625 Y186.5 E282.71917
G1 X167.585 Y187.199 E282.78534
G1 X167.466 Y187.888 E282.85141
G1 X167.268 Y188.559 E282.91752
G1 X166.996 Y189.204 E282.98367
G1 X166.652 Y189.813 E283.04977
G1 X166.24 Y190.379 E283.11593
G1 X165.767 Y190.894 E283.18201
G1 X165.238 Y191.352 E283.24813
G1 X164.66 Y191.747 E283.31429
G1 X164.041 Y192.073 E283.3804
G1 X163.389 Y192.327 E283.44652
G1 X162.712 Y192.504 E283.51265
G1 X162.019 Y192.603 E283.5788
G1 X161.5 Y192.625 E283.62789
G1 X61.5 Y192.625 E293.07789
G1 X60.801 Y192.585 E293.14406
G1 X60.112 Y192.466 E293.21013
G1 X59.441 Y192.268 E293.27624
G1 X58.796 Y191.996 E293.3424
G1 X58.187 Y191.652 E293.40849
G1 X57.621 Y191.24 E293.47465
G1 X57.106 Y190.767 E293.54073
G1 X56.648 Y190.238 E293.60685
G1 X56.253 Y189.66 E293.67301
G1 X55.927 Y189.041 E293.73912
G1 X55.673 Y188.389 E293.80525
G1 X55.496 Y187.712 E293.87137
G1 X55.397 Y187.019 E293.93753
G1 X55.375 Y186.5 E293.98662
G1 X55.375 Y36.5 E308.16162
G1 X55.415 Y35.801 E308.22778
G1 X55.534 Y35.112 E308.29385
G1 X55.732 Y34.441 E308.35997
G1 X56.004 Y33.796 E308.42612
G0 F4500 X56.353 Y33.88
G1 F1800 X56.697 Y33.294 E308.49033
G1 X57.107 Y32.752 E308.55455
G1 X57.577 Y32.262 E308.61872
G1 X58.102 Y31.831 E308.6829
G1 X58.674 Y31.464 E308.74713
G1 X59.285 Y31.167 E308.81133
G1 X59.927 Y30.943 E308.87558
G1 X60.59 Y30.797 E308.93974
G1 X61.5 Y30.725 E309.026
G1 X161.5 Y30.725 E318.476
G1 X162.178 Y30.765 E318.54018
G1 X162.847 Y30.884 E318.6044
G1 X163.497 Y31.081 E318.66858
G1 X164.12 Y31.353 E318.73282
G1 X164.706 Y31.697 E318.79704
G1 X165.248 Y32.107 E318.86126
G1 X165.738 Y32.577 E318.92542
G1 X166.169 Y33.102 E318.98961
G1 X166.536 Y33.674 E319.05383
G1 X166.833 Y34.285 E319.11803
G1 X167.057 Y34.927 E319.18229
G1 X167.203 Y35.59 E319.24644
G1 X167.275 Y36.5 E319.33271
G1 X167.275 Y186.5 E333.50771
G1 X167.235 Y187.178 E333.57189
G1 X167.116 Y187.847 E333.6361
G1 X166.919 Y188.497 E333.70029
G1 X166.647 Y189.12 E333.76453
G1 X166.303 Y189.706 E333.82874
G1 X165.893 Y190.248 E333.89296
G1 X165.423 Y190.738 E333.95713
G1 X164.898 Y191.169 E334.02131
G1 X164.326 Y191.536 E334.08554
G1 X163.715 Y191.833 E334.14974
G1 X163.073 Y192.057 E334.21399
G1 X162.41 Y192.203 E334.27815
G1 X161.5 Y192.275 E334.36441
G1 X61.5 Y192.275 E343.81441
G1 X60.822 Y192.235 E343.87859
G1 X60.153 Y192.116 E343.94281
G1 X59.503 Y191.919 E344.00699
G1 X58.88 Y191.647 E344.07123
G1 X58.294 Y191.303 E344.13545
G1 X57.752 Y190.893 E344.19967
G1 X57.262 Y190.423 E344.26383
G1 X56.831 Y189.898 E344.32802
G1 X56.464 Y189.326 E344.39224
G1 X56.167 Y188.715 E344.45644
G1 X55.943 Y188.073 E344.5207
G1 X55.797 Y187.41 E344.58485
G1 X55.725 Y186.5 E344.67112
G1 X55.725 Y36.5 E358.84612
G1 X55.765 Y35.822 E358.9103
G1 X55.884 Y35.153 E358.97451
G1 X56.081 Y34.503 E359.0387
G1 X56.353 Y33.88 E359.10294
G0 F4500 X56.703 Y33.967
G1 F1800 X57.045 Y33.404 E359.16519
G1 X57.453 Y32.887 E359.22742
G1 X57.92 Y32.424 E359.28957
G1 X58.441 Y32.02 E359.35187
G1 X59.006 Y31.682 E359.41409
G1 X59.608 Y31.416 E359.47628
G1 X60.238 Y31.224 E359.53852
G1 X60.886 Y31.11 E359.6007
G1 X61.5 Y31.075 E359.65882
G1 X161.5 Y31.075 E369.10882
G1 X162.157 Y31.115 E369.17102
G1 X162.805 Y31.234 E369.23328
G1 X163.433 Y31.431 E369.29548
G1 X164.033 Y31.703 E369.35773
G1 X164.596 Y32.045 E369.41998
G1 X165.113 Y32.453 E369.48222
G1 X165.576 Y32.92 E369.54436
G1 X165.98 Y33.441 E369.60666
G1 X166.318 Y34.006 E369.66888
G1 X166.584 Y34.608 E369.73108
G1 X166.776 Y35.238 E369.79332
G1 X166.89 Y35.886 E369.85549
G1 X166.925 Y36.5 E369.91361
G1 X166.925 Y186.5 E384.08861
G1 X166.885 Y187.157 E384.15081
G1 X166.766 Y187.805 E384.21307
G1 X166.569 Y188.433 E384.27527
G1 X166.297 Y189.033 E384.33752
G1 X165.955 Y189.596 E384.39977
G1 X165.547 Y190.113 E384.46201
G1 X165.08 Y190.576 E384.52415
G1 X164.559 Y190.98 E384.58646
G1 X163.994 Y191.318 E384.64867
G1 X163.392 Y191.584 E384.71087
G1 X162.762 Y191.776 E384.77311
G1 X162.114 Y191.89 E384.83528
G1 X161.5 Y191.925 E384.8934
G1 X61.5 Y191.925 E394.3434
G1 X60.843 Y191.885 E394.4056
G1 X60.195 Y191.766 E394.46786
G1 X59.567 Y191.569 E394.53006
G1 X58.967 Y191.297 E394.59231
G1 X58.404 Y190.955 E394.65457
G1 X57.887 Y190.547 E394.7168
G1 X57.424 Y190.08 E394.77895
G1 X57.02 Y189.559 E394.84125
G1 X56.682 Y188.994 E394.90347
G1 X56.416 Y188.392 E394.96566
G1 X56.224 Y187.762 E395.0279
G1 X56.11 Y187.114 E395.09008
G1 X56.075 Y186.5 E395.14819
G1 X56.075 Y36.5 E409.32319
G1 X56.115 Y35.843 E409.3854
G1 X56.234 Y35.195 E409.44766
G1 X56.431 Y34.567 E409.50985
G1 X56.703 Y33.967 E409.57211
G0 F4500 X57.052 Y34.057
G1 F1800 X57.393 Y33.519 E409.6323
G1 X57.799 Y33.028 E409.69251
G1 X58.263 Y32.592 E409.75268
G1 X58.778 Y32.217 E409.81288
G1 X59.335 Y31.91 E409.87298
G1 X59.927 Y31.675 E409.93317
G1 X60.544 Y31.516 E409.99338
G1 X61.176 Y31.435 E410.0536
G1 X61.5 Y31.425 E410.08423
G1 X161.5 Y31.425 E419.53423
G1 X162.136 Y31.465 E419.59445
G1 X162.761 Y31.584 E419.65457
G1 X163.367 Y31.781 E419.71479
G1 X163.943 Y32.052 E419.77495
G1 X164.481 Y32.393 E419.83514
G1 X164.972 Y32.799 E419.89535
G1 X165.408 Y33.263 E419.95551
G1 X165.783 Y33.778 E420.01572
G1 X166.09 Y34.335 E420.07582
G1 X166.325 Y34.927 E420.13601
G1 X166.484 Y35.544 E420.19622
G1 X166.565 Y36.176 E420.25643
G1 X166.575 Y36.5 E420.28707
